X:1
T:Ruskin, CM
T:Ruskin, CM
T:J. W. Griffith, before 1890
T:Public Domain Courtesy of the Cyber Hymnal™
C:J. W. Griffith, before 1890
Z:Public Domain
Z:Courtesy of the Cyber Hymnal™
%%score ( 1 2 ) ( 3 4 )
L:1/8
Q:1/4=115
M:4/4
K:F
V:1 treble 
V:2 treble 
V:3 bass 
V:4 bass 
V:1
 [FA]2 | [Fc]2 (AG) F2 ([DG][^FA]) | [GB]2 [DG]2 [CE]2 [EG]2 | [FA]2 [FB]2 [Fc]2 [Fd]2 | %4
 [EG]6 [Ec]2 | [Fc]2 [GB]2 [FA]2 G2 | F2 f2 [Ge]2 [Ed]2 | [Fc]2 [FA]2 [FG]2 [EG]2 | F6 |] %9
V:2
 x2 | x2 E2 ^F2 x2 | x8 | x8 | x8 | x6 (FE) | F2 (FG) x4 | x8 | F6 |] %9
V:3
 [F,C]2 | [A,C]2 (CB,) A,2 D2 | [G,,D]2 [B,,B,]2 [C,G,]2 [C,C]2 | [F,C]2 [D,D]2 [A,,C]2 (B,A,) | %4
 [C,G,]6 [C,G,]2 | [D,C]2 [E,C]2 [F,C]2 [G,B,]2 | [A,C]2 [=B,D]2 C2 [G,_B,]2 | %7
 [A,C]2 [F,C]2 [B,,D]2 (CB,) | [F,,F,A,]6 |] %9
V:4
 x2 | x2 C,2 (D,C,) (B,,A,,) | x8 | x6 B,,2 | x8 | x8 | x4 C2 x2 | x6 C,2 | x6 |] %9

